X:91
T:Infant, The
M:C
L:1/8
B:Thompson's Compleat Collection of 200 Favourite Country Dances, vol. 3 (London, 1773)
Z:Transcribed and edited by Flynn Titford-Mock, 2007
Z:abc's:AK/Fiddler's Companion
K:A
e>fe>d c e2 f/g/ | aedc BGFE | e>fe>d c e2 f/g/ | adcB {B}A4::e c2 A2 F2 (d | d) B2 G2 E2 g |
aedc fdcB | ceEG A2 [A,2A2]::E>FE>D [Cc]EAc | dBF D [B,>B][C/c/] [B,2B2] | EFED [Cc]EAc | dBAG {G}A2 [A,2A2] :|

